static/logos/shortcut-wordmark-color.svg

<svg width="100" height="24" viewBox="0 0 100 24" fill="none" xmlns="http://www.w3.org/2000/svg">
<g clip-path="url(#clip0_1_1092)">
<path d="M38.3373 8.10329C37.9272 6.31387 35.9701 4.84141 33.4911 4.84141C31.1611 4.80413 28.999 6.63077 29.0549 8.84884C29.0549 10.8432 30.1546 12.1107 32.0745 12.5395L32.5777 12.6326C33.6775 12.8563 34.3672 13.0055 34.6467 13.0986C35.4482 13.3409 35.9142 13.9933 35.9142 14.6084C35.9142 15.6522 34.9449 16.3605 33.547 16.3605C32.8946 16.3605 32.2796 16.2114 31.7204 15.8945C31.1798 15.5777 30.8629 15.149 30.7698 14.6084L28.5703 14.9439C28.7194 17.2366 31.0307 18.5413 33.4538 18.5413C35.9515 18.5413 38.2069 17.106 38.2069 14.5898C38.2069 12.5208 36.9021 11.0856 34.6467 10.6942L34.1994 10.6196C33.9011 10.5637 33.2115 10.4519 32.7082 10.3214C31.7949 10.1536 31.3103 9.55715 31.3103 8.8675C31.3095 8.74229 31.3219 8.61727 31.3476 8.49469C31.5899 7.60001 32.4846 7.02218 33.547 7.02218C34.74 7.02218 35.8583 7.65598 36.1379 8.68112L38.3373 8.10329Z" fill="black"/>
<path d="M48.7316 13.6946C48.7316 11.9798 48.3216 10.7497 47.5014 10.004C46.7 9.25854 45.8892 8.88573 44.6216 8.88573C43.5778 8.88573 42.9721 9.37503 42.3197 10.1392V5.1019H40.1016V18.3358H42.3197V13.9379C42.3756 12.9873 42.6366 12.279 43.1398 11.813C43.6431 11.3471 43.9879 11.1234 44.6216 11.1234C45.8145 11.1234 46.5321 12.0367 46.5321 13.8074V18.3368H48.7316V13.6946Z" fill="black"/>
<path d="M54.9113 18.5786C57.3902 18.6345 59.4781 16.4351 59.4407 13.8815C59.4407 11.2533 57.4276 9.10984 54.9113 9.10984C52.4324 9.05387 50.2889 11.3279 50.3448 13.8815C50.2889 16.3614 52.4698 18.6345 54.9113 18.5786ZM54.9113 11.1974C56.3282 11.1974 57.2599 12.3531 57.2599 13.9002C57.2599 15.4472 56.3468 16.5283 54.9113 16.5283C53.4763 16.5283 52.5067 15.3167 52.5067 13.9002C52.5067 12.3904 53.4769 11.1974 54.9113 11.1974Z" fill="black"/>
<path d="M65.8819 9.3894C64.6328 9.3894 63.7749 9.7249 63.2901 10.4519V9.3894H61.1094L61.1281 18.3362H63.2901V13.7883C63.3831 12.3158 64.3182 11.216 65.6421 11.216H66.3094V9.3894H65.8819Z" fill="black"/>
<path d="M72.952 11.2161V9.38941H71.1573V6.57953L68.9392 6.95234V9.38941H67.6953V11.2161H68.9392V15.6802C68.9392 17.4043 70.0392 18.3177 71.3626 18.3177L72.9286 18.3363V16.3419L72.2479 16.3232C71.6515 16.3232 71.1573 15.9971 71.1573 15.3446V11.2161H72.952Z" fill="black"/>
<path d="M82.9784 11.8881C82.6989 11.0493 82.1772 10.3783 81.4129 9.87502C80.6486 9.37175 79.7913 9.11081 78.8217 9.11081C76.3427 9.05485 74.1246 11.3289 74.1807 13.8825C74.1246 16.4734 76.3427 18.6168 78.8217 18.561C80.686 18.561 82.1953 17.629 82.8106 16.1192L80.9281 15.355C80.6486 16.0446 79.9585 16.6598 78.8217 16.6598C77.2749 16.6598 76.3427 15.4668 76.3427 13.8825C76.3427 12.2981 77.2749 11.0679 78.8217 11.0679C80.0146 11.0679 80.686 11.7017 81.0398 12.5964L82.9784 11.8881Z" fill="black"/>
<path d="M99.4509 11.2161V9.38941H97.6573V6.57953L95.4392 6.95234V9.38941H94.1953V11.2161H95.4392V15.6802C95.4392 17.4043 96.5386 18.3177 97.862 18.3177L99.4275 18.3363V16.3419L98.7474 16.3232C98.1509 16.3232 97.6573 15.9971 97.6573 15.3446V11.2161H99.4509Z" fill="black"/>
<path fill-rule="evenodd" clip-rule="evenodd" d="M84.4922 9.39649L86.6355 9.39205L86.6466 14.6299C86.6495 15.9839 87.4127 16.6413 88.5992 16.6388C89.7858 16.6362 90.546 15.9577 90.5436 14.6036L90.532 9.38462L92.6764 9.37994L92.6869 14.7427C92.6898 15.9899 92.3021 16.9526 91.5243 17.6136C90.746 18.2746 89.7723 18.5961 88.5863 18.5982C87.4004 18.6003 86.4243 18.282 85.6612 17.6248C84.898 16.9675 84.5068 16.0405 84.5039 14.8121L84.4922 9.39649Z" fill="black"/>
<path d="M23.254 5.8116C23.254 2.60205 20.6522 5.36203e-06 17.4427 5.36203e-06H5.81997C5.05667 -0.00103313 4.30067 0.148785 3.59544 0.440856C2.89021 0.73293 2.24965 1.1615 1.71056 1.70193C-0.558752 3.97163 -0.558752 7.65251 1.71056 9.92105L3.7802 11.9908C1.5765 12.8168 0.0078125 14.9423 0.0078125 17.4346C0.0078125 20.6441 2.60968 23.2462 5.81924 23.2462H17.4427C18.2059 23.2472 18.9619 23.0974 19.6671 22.8052C20.3723 22.5131 21.0128 22.0845 21.5518 21.544C23.8214 19.2743 23.8214 15.5934 21.5518 13.3249L19.4821 11.2551C21.6854 10.4293 23.254 8.30357 23.254 5.8116ZM3.30489 19.9501C2.81659 19.4616 2.48107 18.8415 2.33931 18.1655C2.19754 17.4895 2.25566 16.7868 2.50657 16.1433C2.75747 15.4998 3.1903 14.9433 3.75221 14.5418C4.31413 14.1401 4.98079 13.9108 5.67086 13.8818L12.7806 20.9922H5.81903C5.35187 20.9933 4.88918 20.9018 4.45762 20.7229C4.02607 20.544 3.63428 20.2813 3.30489 19.9501ZM19.9575 14.92C20.6245 15.587 20.9992 16.4917 20.9992 17.4351C20.9992 18.3784 20.6245 19.283 19.9575 19.9501C19.2905 20.6171 18.3859 20.9918 17.4427 20.9918C16.4994 20.9918 15.5948 20.6171 14.9278 19.9501L3.30489 8.32667C2.64203 7.65871 2.27083 6.75532 2.2726 5.81425C2.27438 4.87323 2.64897 3.97123 3.31434 3.30582C3.97972 2.6404 4.88165 2.26578 5.82262 2.26401C6.7636 2.26225 7.66693 2.63346 8.33477 3.29636L19.9575 14.92ZM19.9575 8.32667C19.3283 8.95901 18.4831 9.32982 17.5917 9.36456L10.4818 2.25465H17.4434C18.1467 2.25485 18.8342 2.46359 19.4189 2.85449C20.0037 3.24539 20.4594 3.8009 20.7285 4.45078C20.9976 5.10065 21.068 5.81576 20.9307 6.50561C20.7935 7.19556 20.4548 7.82918 19.9575 8.32667Z" fill="#58B1E4"/>
</g>
<defs>
<clipPath id="clip0_1_1092">
<rect width="100" height="23.3918" fill="white"/>
</clipPath>
</defs>
</svg>

<svg xmlns="http://www.w3.org/2000/svg" width="266.667" height="64" fill="none" viewBox="0 0 100 24"><g clip-path="url(#a)"><path fill="#000" d="M38.337 8.103c-.41-1.79-2.367-3.262-4.846-3.262-2.33-.037-4.492 1.79-4.436 4.008 0 1.994 1.1 3.262 3.02 3.69l.503.094c1.1.223 1.79.373 2.069.466.801.242 1.267.894 1.267 1.51 0 1.043-.97 1.751-2.367 1.751a3.65 3.65 0 0 1-1.827-.465c-.54-.317-.857-.746-.95-1.287l-2.2.336c.15 2.293 2.46 3.597 4.884 3.597 2.498 0 4.753-1.435 4.753-3.951 0-2.07-1.305-3.504-3.56-3.896l-.448-.074c-.298-.056-.987-.168-1.49-.299-.914-.167-1.399-.764-1.399-1.454 0-.125.012-.25.038-.372.242-.895 1.137-1.473 2.199-1.473 1.193 0 2.311.634 2.59 1.66l2.2-.579ZM48.732 13.695c0-1.715-.41-2.945-1.23-3.691-.802-.745-1.613-1.118-2.88-1.118-1.044 0-1.65.489-2.302 1.253V5.102h-2.218v13.234h2.218v-4.398c.056-.95.317-1.659.82-2.125.503-.466.848-.69 1.482-.69 1.193 0 1.91.914 1.91 2.684v4.53h2.2v-4.642ZM54.911 18.579c2.48.055 4.567-2.144 4.53-4.697 0-2.629-2.013-4.772-4.53-4.772-2.479-.056-4.622 2.218-4.566 4.772-.056 2.48 2.125 4.752 4.566 4.697Zm0-7.382c1.417 0 2.349 1.156 2.349 2.703s-.913 2.628-2.349 2.628c-1.435 0-2.404-1.211-2.404-2.628 0-1.51.97-2.703 2.404-2.703ZM65.882 9.39c-1.25 0-2.107.335-2.592 1.062V9.389h-2.18l.018 8.947h2.162v-4.548c.093-1.472 1.028-2.572 2.352-2.572h.667V9.389h-.427ZM72.952 11.216V9.39h-1.795V6.58l-2.218.373V9.39h-1.244v1.827h1.244v4.464c0 1.724 1.1 2.638 2.424 2.638l1.566.018v-1.994l-.681-.019c-.597 0-1.09-.326-1.09-.978v-4.129h1.794ZM82.978 11.888c-.28-.839-.8-1.51-1.565-2.013a4.599 4.599 0 0 0-2.591-.764c-2.48-.056-4.697 2.218-4.641 4.771-.056 2.591 2.162 4.735 4.64 4.679 1.865 0 3.374-.932 3.99-2.442l-1.883-.764c-.28.69-.97 1.305-2.106 1.305-1.547 0-2.48-1.193-2.48-2.777 0-1.585.933-2.815 2.48-2.815 1.193 0 1.864.634 2.218 1.528l1.938-.708ZM99.45 11.216V9.39h-1.793V6.58l-2.218.373V9.39h-1.244v1.827h1.244v4.464c0 1.724 1.1 2.638 2.423 2.638l1.566.018v-1.994l-.68-.019c-.597 0-1.09-.326-1.09-.978v-4.129h1.793Z"/><path fill="#000" fill-rule="evenodd" d="m84.492 9.396 2.143-.004.012 5.238c.002 1.354.766 2.011 1.952 2.009 1.187-.003 1.947-.681 1.945-2.035l-.012-5.22 2.144-.004.01 5.363c.004 1.247-.384 2.21-1.162 2.87-.778.662-1.752.983-2.938.985-1.186.002-2.162-.316-2.925-.973-.763-.657-1.154-1.584-1.157-2.813l-.012-5.416Z" clip-rule="evenodd"/><path fill="#58B1E4" d="M23.254 5.812A5.812 5.812 0 0 0 17.443 0H5.82a5.793 5.793 0 0 0-4.11 1.702 5.812 5.812 0 0 0 0 8.219l2.07 2.07a5.814 5.814 0 0 0 2.04 11.255h11.623a5.791 5.791 0 0 0 4.109-1.702 5.812 5.812 0 0 0 0-8.22l-2.07-2.069a5.814 5.814 0 0 0 3.772-5.443ZM3.304 19.95a3.557 3.557 0 0 1 2.367-6.068l7.11 7.11H5.819a3.533 3.533 0 0 1-2.514-1.042Zm16.654-5.03a3.557 3.557 0 0 1-5.03 5.03L3.305 8.327a3.557 3.557 0 0 1 5.03-5.03L19.957 14.92Zm0-6.593a3.531 3.531 0 0 1-2.366 1.038l-7.11-7.11h6.961a3.556 3.556 0 0 1 2.514 6.072Z"/></g><defs><clipPath id="a"><path fill="#fff" d="M0 0h100v23.392H0z"/></clipPath></defs></svg>
